svg/filled/two-keys.svg

<svg width="24" height="24" viewBox="0 0 24 24" fill="none" xmlns="http://www.w3.org/2000/svg">
<path fill-rule="evenodd" clip-rule="evenodd" d="M20.8535 10.3078C21.4548 12.7192 19.9314 15.1754 17.4511 15.7938C17.1406 15.8712 16.8298 15.9162 16.5225 15.9308L13.8567 20.2291C13.5823 20.6716 13.1461 20.9896 12.6409 21.1155L11.405 21.4237C10.8691 21.5573 10.3264 21.2312 10.1928 20.6953L9.91339 19.5746C9.7827 19.0505 9.8696 18.4957 10.1543 18.0367L12.5994 14.0942C12.2662 13.6431 12.0148 13.1224 11.8714 12.5472C11.2702 10.1358 12.7935 7.67962 15.2738 7.0612C17.7542 6.44279 20.2523 7.89632 20.8535 10.3078ZM16.9823 11.7883C17.5335 11.6508 17.872 11.105 17.7384 10.5692C17.6048 10.0333 17.0496 9.71027 16.4985 9.8477C15.9473 9.98513 15.6088 10.5309 15.7424 11.0668C15.876 11.6027 16.4311 11.9257 16.9823 11.7883Z" fill="black"/>
<path fill-rule="evenodd" clip-rule="evenodd" d="M11.2514 12.1866C13.7317 11.5681 15.255 9.11196 14.6538 6.70052C14.0526 4.28908 11.5544 2.83555 9.07411 3.45396C6.59377 4.07238 5.07046 6.52857 5.6717 8.94001C5.81511 9.51519 6.06644 10.0359 6.3997 10.4869L3.9546 14.4294C3.66988 14.8885 3.58298 15.4432 3.71367 15.9674L3.99309 17.0881C4.1267 17.6239 4.66943 17.95 5.2053 17.8164L6.44119 17.5083C6.9464 17.3823 7.38257 17.0643 7.657 16.6218L10.3227 12.3236C10.6301 12.3089 10.9409 12.264 11.2514 12.1866ZM11.5389 6.96183C11.6725 7.49771 11.334 8.04353 10.7828 8.18095C10.2316 8.31838 9.67651 7.99537 9.5429 7.4595C9.4093 6.92362 9.74781 6.3778 10.299 6.24038C10.8502 6.10295 11.4053 6.42596 11.5389 6.96183Z" fill="black"/>
</svg>

<svg xmlns="http://www.w3.org/2000/svg" viewBox="0 0 24 24" fill="currentColor">
  <path fill-rule="evenodd" d="M20.854 10.308c.6 2.411-.923 4.867-3.403 5.486-.31.077-.621.122-.928.137l-2.666 4.298a2 2 0 01-1.216.887l-1.236.308a1 1 0 01-1.212-.729l-.28-1.12a2 2 0 01.241-1.538l2.445-3.943a4.38 4.38 0 01-.728-1.547c-.6-2.411.922-4.867 3.403-5.486 2.48-.618 4.978.835 5.58 3.247zm-3.872 1.48c.552-.137.89-.683.756-1.219-.133-.536-.688-.859-1.24-.721-.55.137-.89.683-.756 1.219s.69.859 1.24.721z" clip-rule="evenodd"/>
  <path fill-rule="evenodd" d="M11.251 12.187c2.48-.619 4.004-3.075 3.403-5.486-.601-2.412-3.1-3.865-5.58-3.247-2.48.618-4.004 3.075-3.402 5.486.143.575.394 1.096.728 1.547l-2.445 3.942a2 2 0 00-.241 1.538l.28 1.121a1 1 0 001.211.728l1.236-.308a2 2 0 001.216-.886l2.666-4.298c.307-.015.618-.06.928-.137zm.288-5.225c.133.536-.205 1.082-.756 1.219s-1.106-.186-1.24-.721c-.134-.536.205-1.082.756-1.22.551-.137 1.106.186 1.24.722z" clip-rule="evenodd"/>
</svg>
